svgs/sharp-solid/calendar-clock.svg

<svg xmlns="http://www.w3.org/2000/svg" viewBox="0 0 576 512"><!--! Font Awesome Pro 6.6.0 by @fontawesome - https://fontawesome.com License - https://fontawesome.com/license (Commercial License) Copyright 2024 Fonticons, Inc. --><path d="M96 0l0 64L0 64l0 96 448 0 0-96-96 0 0-64L288 0l0 64L160 64l0-64L96 0zM448 192l-16 0L0 192 0 512l330.8 0C285.6 480.1 256 427.5 256 368c0-97.2 78.8-176 176-176c5.4 0 10.7 .2 16 .7l0-.7zM576 368a144 144 0 1 0 -288 0 144 144 0 1 0 288 0zM448 288l0 16 0 48 32 0 16 0 0 32-16 0-48 0-16 0 0-16 0-64 0-16 32 0z"/></svg>

<svg xmlns="http://www.w3.org/2000/svg" viewBox="0 0 576 512"><!--! Font Awesome Pro 6.4.0 by @fontawesome - https://fontawesome.com License - https://fontawesome.com/license (Commercial License) Copyright 2023 Fonticons, Inc. --><path d="M96 0V64H0v96H448V64H352V0H288V64H160V0H96zM448 192H432 0V512H330.8C285.6 480.1 256 427.5 256 368c0-97.2 78.8-176 176-176c5.4 0 10.7 .2 16 .7V192zM576 368a144 144 0 1 0 -288 0 144 144 0 1 0 288 0zM448 288v16 48h32 16v32H480 432 416V368 304 288h32z"/></svg>
